build/flags/Albania.svg

<svg xmlns="http://www.w3.org/2000/svg" fill="none" viewBox="0 0 28 28" focusable="false"><defs><filter id="Albania_svg__a"><feColorMatrix values="0 0 0 0 1 0 0 0 0 1 0 0 0 0 1 0 0 0 1 0"/></filter></defs><mask id="Albania_svg__b" width="28" height="20" x="0" y="4" maskUnits="userSpaceOnUse"><g filter="url(#Albania_svg__a)"><rect width="28" height="20" y="4" fill="#000" rx="3"/><rect width="28" height="20" y="4" stroke="#969696" stroke-opacity="0" stroke-width="0" rx="3"/></g></mask><path fill="none" d="M0 0H28V28H0z"/><rect width="28" height="20" y="4" fill="none" rx="3"/><rect width="28" height="20" y="4" rx="3"/><g mask="url(#Albania_svg__b)"><path fill="#EE343C" d="M0 4H28V24H0z"/><path d="M0 4H28V24H0z"/><path fill="#262626" fill-rule="evenodd" d="M12.3864 8.38646C12.1617 8.16175 11.8096 8.12689 11.5452 8.30316L10.9558 8.6961C10.5299 8.98004 10.5696 9.61817 11.0275 9.84709L12.2981 10.4824C12.524 10.5953 12.6666 10.8262 12.6666 11.0787L12.6666 11.3333C12.6666 11.7015 12.3682 12 12 12L11.4907 12C11.3872 12 11.2851 11.9759 11.1925 11.9296L9.09642 10.8816C8.83977 10.7532 8.52978 10.8035 8.32688 11.0064L7.98735 11.346C7.66559 11.6677 7.75362 12.2102 8.16061 12.4137L9.10455 12.8856C9.50354 13.0851 9.53816 13.6412 9.167 13.8887L9.167 13.8887C8.73634 14.1758 8.86779 14.8402 9.37533 14.9417L9.93727 15.0541C10.4768 15.162 10.6345 15.8574 10.1944 16.1875L9.69127 16.5649C9.36304 16.811 9.53714 17.3333 9.94742 17.3333L9.94742 17.3333C9.98233 17.3333 10.0171 17.3291 10.051 17.3206L11.3127 17.0051C11.7912 16.8855 12.1661 17.4175 11.8925 17.8279L11.8925 17.8279C11.6535 18.1864 11.9105 18.6667 12.3414 18.6667L12.9249 18.6667C13.1688 18.6667 13.3853 18.8227 13.4625 19.0541L13.4625 19.0541C13.6346 19.5707 14.3653 19.5707 14.5375 19.0541L14.5375 19.0541C14.6146 18.8227 14.8311 18.6667 15.075 18.6667L15.6585 18.6667C16.0894 18.6667 16.3465 18.1864 16.1074 17.8279L16.1074 17.8279C15.8339 17.4175 16.2088 16.8855 16.6872 17.0051L17.949 17.3206C17.9829 17.3291 18.0176 17.3333 18.0525 17.3333L18.0525 17.3333C18.4628 17.3333 18.6369 16.811 18.3087 16.5649L17.8056 16.1875C17.3654 15.8574 17.5232 15.162 18.0627 15.0541L18.6246 14.9417C19.1322 14.8402 19.2636 14.1758 18.833 13.8887L18.833 13.8887C18.4618 13.6412 18.4964 13.0851 18.8954 12.8856L19.8393 12.4137C20.2463 12.2102 20.3344 11.6677 20.0126 11.346L19.6731 11.0064C19.4702 10.8035 19.1602 10.7532 18.9035 10.8816L16.8074 11.9296C16.7148 11.9759 16.6128 12 16.5093 12L16 12C15.6318 12 15.3333 11.7015 15.3333 11.3333L15.3333 11.0787C15.3333 10.8262 15.476 10.5953 15.7018 10.4824C16.0944 10.2861 16.5621 10.0523 16.9727 9.84697C17.4305 9.61805 17.47 8.98004 17.0441 8.6961L16.4547 8.30316C16.1903 8.12689 15.8382 8.16175 15.6135 8.38646L14.4714 9.5286C14.211 9.78895 13.7889 9.78895 13.5286 9.52859L12.3864 8.38646Z"/><path d="M10.9558 8.6961C10.5299 8.98004 10.5696 9.61817 11.0275 9.84709L12.2981 10.4824C12.524 10.5953 12.6666 10.8262 12.6666 11.0787L12.6666 11.3333C12.6666 11.7015 12.3682 12 12 12L11.4907 12C11.3872 12 11.2851 11.9759 11.1925 11.9296L9.09642 10.8816C8.83976 10.7532 8.52978 10.8035 8.32688 11.0064L7.98735 11.346C7.66559 11.6677 7.75361 12.2102 8.16061 12.4137L9.10456 12.8856C9.50354 13.0851 9.53816 13.6412 9.167 13.8887C8.73634 14.1758 8.86779 14.8402 9.37533 14.9417L9.93727 15.0541C10.4768 15.162 10.6345 15.8574 10.1944 16.1875L9.69127 16.5649C9.36304 16.811 9.53714 17.3333 9.94742 17.3333C9.98233 17.3333 10.0171 17.3291 10.051 17.3206L11.3127 17.0051C11.7912 16.8855 12.1661 17.4175 11.8925 17.8279C11.6535 18.1864 11.9105 18.6667 12.3414 18.6667L12.9249 18.6667C13.1688 18.6667 13.3853 18.8227 13.4625 19.0541C13.6346 19.5707 14.3653 19.5707 14.5375 19.0541C14.6146 18.8227 14.8311 18.6667 15.075 18.6667L15.6585 18.6667C16.0894 18.6667 16.3465 18.1864 16.1074 17.8279C15.8339 17.4175 16.2088 16.8855 16.6872 17.0051L17.949 17.3206C17.9829 17.3291 18.0176 17.3333 18.0525 17.3333C18.4628 17.3333 18.6369 16.811 18.3087 16.5649L17.8056 16.1875C17.3654 15.8574 17.5231 15.162 18.0627 15.0541L18.6246 14.9417C19.1322 14.8402 19.2636 14.1758 18.833 13.8887C18.4618 13.6412 18.4964 13.0851 18.8954 12.8856L19.8393 12.4137C20.2463 12.2102 20.3344 11.6677 20.0126 11.346L19.6731 11.0064C19.4702 10.8035 19.1602 10.7532 18.9035 10.8816L16.8074 11.9296C16.7148 11.9759 16.6128 12 16.5093 12L16 12C15.6318 12 15.3333 11.7015 15.3333 11.3333L15.3333 11.0787C15.3333 10.8262 15.476 10.5953 15.7018 10.4824C16.0943 10.2862 16.5619 10.0524 16.9725 9.84709C17.4303 9.61817 17.47 8.98004 17.0441 8.6961L16.4547 8.30316C16.1903 8.12689 15.8382 8.16175 15.6135 8.38646L14.4714 9.5286C14.211 9.78895 13.7889 9.78895 13.5286 9.5286L12.3864 8.38646C12.1617 8.16175 11.8096 8.12689 11.5452 8.30316L10.9558 8.6961Z"/></g></svg>

<svg xmlns="http://www.w3.org/2000/svg" fill="none" viewBox="0 0 28 28" focusable="false"><path fill="none" d="M0 0h28v28H0z"/><rect width="28" height="20" y="4" fill="none" rx="3"/><rect width="28" height="20" y="4" rx="3"/><mask id="Albania_svg__a" width="28" height="20" x="0" y="4" mask-type="alpha" maskUnits="userSpaceOnUse"><rect width="28" height="20" y="4" fill="#000" rx="3"/><rect width="28" height="20" y="4" stroke="#979797" stroke-opacity="0" stroke-width="0" rx="3"/></mask><g mask="url(#Albania_svg__a)"><path fill="#EE343C" d="M0 4h28v20H0z"/><path d="M0 4h28v20H0z"/></g><g mask="url(#Albania_svg__a)"><path fill="#262626" fill-rule="evenodd" d="M12.38 8.38a.666.666 0 0 0-.84-.08l-.59.39c-.43.29-.39.92.07 1.15l1.27.64c.23.11.37.34.37.59v.26c0 .37-.3.67-.66.67h-.51a.6.6 0 0 1-.3-.08l-2.1-1.04a.67.67 0 0 0-.77.12l-.34.34a.67.67 0 0 0 .18 1.07l.94.47c.4.2.43.76.06 1-.43.29-.3.96.21 1.06l.56.11c.54.11.7.8.26 1.13l-.5.38c-.33.25-.16.77.25.77.04 0 .07-.01.11-.01l1.26-.32c.48-.12.85.41.58.82-.24.36.02.84.45.84h.58c.24 0 .46.16.54.39.17.52.9.52 1.07 0 .08-.23.3-.39.54-.39h.58c.43 0 .69-.48.45-.84-.27-.41.1-.94.58-.82l1.26.32c.04 0 .07.01.11.01.41 0 .58-.52.25-.77l-.5-.38a.635.635 0 0 1 .26-1.13l.56-.11c.51-.1.64-.77.21-1.06-.37-.24-.34-.8.06-1l.94-.47c.41-.2.5-.75.18-1.07l-.34-.34c-.2-.2-.51-.25-.77-.12l-2.1 1.04a.6.6 0 0 1-.3.08H16a.67.67 0 0 1-.67-.67v-.26c0-.25.14-.48.37-.59.39-.2.86-.43 1.27-.64.46-.23.49-.86.07-1.15l-.59-.39a.666.666 0 0 0-.84.08l-1.14 1.14c-.26.26-.69.26-.95 0z"/><path d="M10.95 8.69c-.43.29-.39.92.07 1.15l1.27.64c.23.11.37.34.37.59v.26c0 .37-.3.67-.66.67h-.51a.6.6 0 0 1-.3-.08l-2.1-1.04a.67.67 0 0 0-.77.12l-.34.34a.67.67 0 0 0 .18 1.07l.94.47c.4.2.43.76.06 1-.43.29-.3.96.21 1.06l.5.1c.56.11.73.84.27 1.18l-.45.34c-.33.25-.16.77.25.77.04 0 .07-.01.11-.01l1.26-.32c.48-.12.85.41.58.82-.24.36.02.84.45.84h.58c.24 0 .46.16.54.39.17.52.9.52 1.07 0 .08-.23.3-.39.54-.39h.58c.43 0 .69-.48.45-.84-.27-.41.1-.94.58-.82l1.26.32c.04 0 .07.01.11.01.41 0 .58-.52.25-.77l-.5-.38a.635.635 0 0 1 .26-1.13l.56-.11c.51-.1.64-.77.21-1.06-.37-.24-.34-.8.06-1l.94-.47c.41-.2.5-.75.18-1.07l-.34-.34c-.2-.2-.51-.25-.77-.12l-2.1 1.04a.6.6 0 0 1-.3.08H16a.67.67 0 0 1-.67-.67v-.26c0-.25.14-.48.37-.59.39-.2.86-.43 1.27-.64.46-.23.49-.86.07-1.15l-.59-.39a.666.666 0 0 0-.84.08l-1.14 1.14c-.26.26-.69.26-.95 0l-1.14-1.14a.666.666 0 0 0-.84-.08z"/></g></svg>
